X:1
T: Will You Come Down To Limerick
Z: gian marco
S: https://thesession.org/tunes/2337#setting2337
R: slip jig
M: 9/8
L: 1/8
K: Gmaj
d|:cAG GAG GBd|cAG GAB cAd|cAG GAG GAG|1 cAA fed cAd:|2 cAA fed cAG||
ddg gbf g2f|ddg gfg abc'|bag afa gfd|1 cAA fed cAG:|2 cAA fed cAd||

